icons/label-check-outline.svg

<svg xmlns="http://www.w3.org/2000/svg" width="24" height="24" viewBox="0 0 24 24">
  <path d="M14.1715729,4 C14.9672223,4 15.7302841,4.31607052 16.2928932,4.87867966 L16.2928932,4.87867966 L21.2928932,9.87867966 C22.4644661,11.0502525 22.4644661,12.9497475 21.2928932,14.1213203 L21.2928932,14.1213203 L16.2928932,19.1213203 C15.7302841,19.6839295 14.9672223,20 14.1715729,20 L14.1715729,20 L5,20 C3.34314575,20 2,18.6568542 2,17 L2,17 L2,7 C2,5.34314575 3.34314575,4 5,4 L5,4 Z M14.1715729,6 L5,6 C4.44771525,6 4,6.44771525 4,7 L4,7 L4,17 C4,17.5522847 4.44771525,18 5,18 L5,18 L14.1715729,18 C14.4367894,18 14.6911433,17.8946432 14.8786797,17.7071068 L14.8786797,17.7071068 L19.8786797,12.7071068 C20.2692039,12.3165825 20.2692039,11.6834175 19.8786797,11.2928932 L19.8786797,11.2928932 L14.8786797,6.29289322 C14.6911433,6.10535684 14.4367894,6 14.1715729,6 L14.1715729,6 Z M13.1616337,9.25016214 C13.543902,9.58745772 13.6069605,10.1518544 13.327,10.5624086 L13.2498499,10.6616216 L9.72043816,14.6616216 C9.35078113,15.0805663 8.71779524,15.1104909 8.3105198,14.7513955 L8.22076245,14.6616216 L6.75017421,12.994955 C6.38477067,12.580831 6.42426642,11.948899 6.83839043,11.5834955 C7.22065875,11.2461999 7.78851489,11.2539073 8.16101521,11.5828086 L8.24984993,11.6717117 L8.97001207,12.488 L11.7501742,9.33837836 C12.1155778,8.92425435 12.7475097,8.8847586 13.1616337,9.25016214 Z"/>
</svg>

<svg xmlns="http://www.w3.org/2000/svg" viewBox="0 0 24 24">
  <path d="M14.17 4a3 3 0 0 1 2.12.88l5 5a3 3 0 0 1 0 4.24l-5 5a3 3 0 0 1-2.12.88H5a3 3 0 0 1-3-3V7a3 3 0 0 1 3-3zm0 2H5a1 1 0 0 0-1 1v10a1 1 0 0 0 1 1h9.17a1 1 0 0 0 .7-.3l5-5a1 1 0 0 0 0-1.4l-5-5a1 1 0 0 0-.7-.3zm-1 3.25a1 1 0 0 1 .16 1.31l-.08.1-3.53 4a1 1 0 0 1-1.4.1l-.1-.1L6.75 13a1 1 0 0 1 1.41-1.4l.09.08.72.82 2.78-3.15a1 1 0 0 1 1.41-.09z"/>
</svg>
